src/img/standarts-list__quality.svg

<svg
 xmlns="http://www.w3.org/2000/svg"
 xmlns:xlink="http://www.w3.org/1999/xlink"
 width="55px" height="67px">
<path fill-rule="evenodd"  fill="rgb(132, 171, 49)"
 d="M27.331,16.631 C31.657,16.631 35.576,18.385 38.410,21.221 C41.244,24.054 43.002,27.975 43.002,32.297 C43.002,36.622 41.247,40.540 38.410,43.374 C35.576,46.207 31.657,47.964 27.331,47.964 C23.005,47.964 19.086,46.209 16.252,43.374 C13.418,40.540 11.660,36.622 11.660,32.297 C11.660,27.972 13.415,24.054 16.252,21.221 C19.086,18.387 23.005,16.631 27.331,16.631 ZM30.586,62.196 C31.253,61.811 32.108,62.038 32.494,62.704 C32.879,63.371 32.652,64.227 31.985,64.611 C31.351,64.977 30.698,65.341 30.028,65.702 C29.373,66.054 28.692,66.412 27.992,66.767 C27.583,66.975 27.115,66.959 26.735,66.767 C17.454,62.062 10.786,56.748 6.427,50.076 C2.054,43.391 0.037,35.391 0.068,25.330 L-0.001,10.675 C-0.003,9.904 0.617,9.279 1.388,9.276 C6.282,9.251 10.830,8.530 15.012,7.109 C19.171,5.697 22.975,3.590 26.416,0.792 C26.941,0.366 27.684,0.385 28.187,0.801 C31.625,3.596 35.430,5.702 39.597,7.112 C43.790,8.530 48.348,9.251 53.276,9.276 C54.044,9.279 54.664,9.902 54.664,10.670 L54.670,25.325 C54.686,33.013 53.511,39.503 51.002,45.128 C48.477,50.786 44.621,55.538 39.294,59.723 C38.688,60.199 37.808,60.095 37.332,59.488 C36.857,58.882 36.961,58.002 37.567,57.527 C42.536,53.619 46.124,49.212 48.455,43.991 C50.800,38.737 51.898,32.616 51.877,25.324 L51.871,12.037 C47.162,11.892 42.770,11.133 38.704,9.756 C34.572,8.354 30.770,6.318 27.299,3.649 C23.831,6.318 20.032,8.354 15.911,9.753 C11.853,11.130 7.477,11.892 2.796,12.037 L2.859,25.318 C2.832,34.821 4.704,42.329 8.768,48.548 C12.744,54.638 18.855,59.553 27.368,63.954 L28.713,63.244 C29.349,62.900 29.978,62.550 30.590,62.195 L30.586,62.196 ZM34.234,59.936 C34.877,59.510 35.743,59.688 36.169,60.330 C36.596,60.972 36.418,61.838 35.776,62.265 L35.631,62.360 C34.989,62.786 34.122,62.609 33.696,61.967 C33.270,61.325 33.447,60.458 34.090,60.032 L34.234,59.936 ZM20.258,32.939 C19.711,32.393 19.711,31.508 20.258,30.961 C20.804,30.415 21.690,30.415 22.237,30.961 L26.085,34.808 L32.316,26.827 C32.788,26.221 33.666,26.114 34.272,26.587 C34.879,27.059 34.986,27.937 34.513,28.543 L27.380,37.679 C27.328,37.756 27.268,37.830 27.200,37.898 C26.653,38.444 25.768,38.444 25.221,37.898 L20.258,32.936 L20.258,32.939 ZM36.431,23.199 C34.103,20.871 30.886,19.431 27.331,19.431 C23.775,19.431 20.558,20.871 18.230,23.199 C15.901,25.527 14.461,28.745 14.461,32.300 C14.461,35.855 15.901,39.071 18.230,41.398 C20.558,43.726 23.775,45.166 27.331,45.166 C30.886,45.166 34.103,43.726 36.431,41.398 C38.760,39.071 40.200,35.855 40.200,32.300 C40.200,28.745 38.760,25.527 36.431,23.199 Z"/>
</svg>

<svg xmlns="http://www.w3.org/2000/svg" width="55" height="67"><path fill-rule="evenodd" fill="#84AB31" d="M27.33 16.63a15.6 15.6 0 0 1 11.08 4.6 15.62 15.62 0 0 1 0 22.14 15.63 15.63 0 0 1-22.16 0 15.62 15.62 0 0 1 0-22.15 15.62 15.62 0 0 1 11.08-4.59Zm3.26 45.57a1.4 1.4 0 0 1 1.4 2.41 76.42 76.42 0 0 1-4 2.16c-.4.2-.88.19-1.25 0-9.29-4.7-15.95-10.02-20.31-16.7-4.38-6.68-6.4-14.68-6.36-24.74l-.07-14.65c0-.78.62-1.4 1.39-1.4 4.9-.03 9.44-.75 13.62-2.17a36.6 36.6 0 0 0 11.4-6.32 1.4 1.4 0 0 1 1.78.01c3.43 2.8 7.24 4.9 11.4 6.31a43.13 43.13 0 0 0 13.69 2.17c.76 0 1.38.62 1.38 1.39l.01 14.65c.02 7.7-1.16 14.18-3.67 19.8-2.52 5.67-6.38 10.42-11.7 14.6a1.4 1.4 0 0 1-1.73-2.2c4.97-3.9 8.55-8.3 10.88-13.53 2.35-5.25 3.45-11.37 3.43-18.67v-13.28a45.3 45.3 0 0 1-13.18-2.28 39.31 39.31 0 0 1-11.4-6.11 39.24 39.24 0 0 1-11.39 6.1 44.96 44.96 0 0 1-13.11 2.29l.06 13.28c-.03 9.5 1.84 17 5.9 23.23 3.98 6.09 10.1 11 18.6 15.4l1.35-.7 1.88-1.05Zm3.64-2.26a1.4 1.4 0 0 1 1.55 2.33l-.15.09a1.4 1.4 0 0 1-1.54-2.33l.14-.1Zm-13.97-27a1.4 1.4 0 1 1 1.98-1.98l3.85 3.85 6.23-7.98a1.4 1.4 0 0 1 2.2 1.71l-7.14 9.14a1.4 1.4 0 0 1-2.16.22l-4.96-4.96Zm16.17-9.74a12.83 12.83 0 0 0-9.1-3.77 12.83 12.83 0 0 0-12.87 12.87 12.83 12.83 0 0 0 12.87 12.87 12.83 12.83 0 0 0 12.87-12.87c0-3.55-1.44-6.77-3.77-9.1Z"/></svg>
